src/assets/duotone/Magicpen.svg

<svg width="24" height="24" viewBox="0 0 24 24"  xmlns="http://www.w3.org/2000/svg">
<path d="M19.4998 7.49988L18.0098 8.98988L15.0098 5.98988L16.4998 4.49988C16.9198 4.07988 17.4598 3.87988 17.9998 3.87988C18.5398 3.87988 19.0798 4.07988 19.4998 4.49988C20.3298 5.32988 20.3298 6.66988 19.4998 7.49988Z" />
<path opacity="0.4" d="M18.0099 8.99023L6.49994 20.5002C5.66994 21.3302 4.32994 21.3302 3.49994 20.5002C2.66994 19.6702 2.66994 18.3302 3.49994 17.5002L15.0099 5.99023L18.0099 8.99023Z" />
<path d="M9.95002 3.50002L10.36 2.11002C10.4 1.98002 10.36 1.84002 10.27 1.74002C10.18 1.64002 10.02 1.60002 9.89002 1.64002L8.50002 2.05002L7.11002 1.64002C6.98002 1.60002 6.84002 1.64002 6.74002 1.73002C6.64002 1.83002 6.61002 1.97002 6.65002 2.10002L7.05002 3.50002L6.64002 4.89002C6.60002 5.02002 6.64002 5.16002 6.73002 5.26002C6.83002 5.36002 6.97002 5.39002 7.10002 5.35002L8.50002 4.95002L9.89002 5.36002C9.93002 5.37002 9.96002 5.38002 10 5.38002C10.1 5.38002 10.19 5.34002 10.27 5.27002C10.37 5.17002 10.4 5.03002 10.36 4.90002L9.95002 3.50002Z" />
<path d="M5.95002 9.50002L6.36002 8.11002C6.40002 7.98002 6.36002 7.84002 6.27002 7.74002C6.17002 7.64002 6.03002 7.61002 5.90002 7.65002L4.50002 8.05002L3.11002 7.64002C2.98002 7.60002 2.84002 7.64002 2.74002 7.73002C2.64002 7.83002 2.61002 7.97002 2.65002 8.10002L3.05002 9.50002L2.64002 10.89C2.60002 11.02 2.64002 11.16 2.73002 11.26C2.83002 11.36 2.97002 11.39 3.10002 11.35L4.49002 10.94L5.88002 11.35C5.91002 11.36 5.95002 11.36 5.99002 11.36C6.09002 11.36 6.18002 11.32 6.26002 11.25C6.36002 11.15 6.39002 11.01 6.35002 10.88L5.95002 9.50002Z" />
<path d="M20.9502 14.5L21.3602 13.11C21.4002 12.98 21.3602 12.84 21.2702 12.74C21.1702 12.64 21.0302 12.61 20.9002 12.65L19.5102 13.06L18.1202 12.65C17.9902 12.61 17.8502 12.65 17.7502 12.74C17.6502 12.84 17.6202 12.98 17.6602 13.11L18.0702 14.5L17.6602 15.89C17.6202 16.02 17.6602 16.16 17.7502 16.26C17.8502 16.36 17.9902 16.39 18.1202 16.35L19.5102 15.94L20.9002 16.35C20.9302 16.36 20.9702 16.36 21.0102 16.36C21.1102 16.36 21.2002 16.32 21.2802 16.25C21.3802 16.15 21.4102 16.01 21.3702 15.88L20.9502 14.5Z" />
</svg>

<?xml version="1.0" encoding="UTF-8"?>
<svg width="24" height="24" viewBox="0 0 24 24" xmlns="http://www.w3.org/2000/svg">
 <path d="m19.5 7.4999-1.49 1.49-3-3 1.49-1.49c0.42-0.42 0.96-0.62 1.5-0.62s1.08 0.2 1.5 0.62c0.83 0.83 0.83 2.17 0 3z"/>
 <path d="m18.01 8.9902-11.51 11.51c-0.83 0.83-2.17 0.83-3 0s-0.83-2.17 0-3l11.51-11.51 3 3z" opacity=".4"/>
 <path d="m9.95 3.5 0.40998-1.39c0.04-0.13 0-0.27-0.09-0.37s-0.25-0.14-0.37998-0.1l-1.39 0.41-1.39-0.41c-0.13-0.04-0.27 0-0.37 0.09-0.1 0.1-0.13 0.24-0.09 0.37l0.4 1.4-0.41 1.39c-0.04 0.13 0 0.27 0.09 0.37 0.1 0.1 0.24 0.13 0.37 0.09l1.4-0.4 1.39 0.41c0.04 0.01 0.07 0.02 0.10998 0.02 0.1 0 0.19-0.04 0.27-0.11 0.1-0.1 0.13-0.24 0.09-0.37l-0.40998-1.4z"/>
 <path d="m5.95 9.5 0.41-1.39c0.04-0.13 0-0.27-0.09-0.37-0.1-0.1-0.24-0.13-0.37-0.09l-1.4 0.4-1.39-0.41c-0.13-0.04-0.27 0-0.37 0.09-0.1 0.1-0.13 0.24-0.09 0.37l0.4 1.4-0.41 1.39c-0.04 0.13 0 0.27 0.09 0.37 0.1 0.1 0.24 0.13 0.37 0.09l1.39-0.41 1.39 0.41c0.03 0.01 0.07 0.01 0.11 0.01 0.1 0 0.19-0.04 0.27-0.11 0.1-0.1 0.13-0.24 0.09-0.37l-0.4-1.38z"/>
 <path d="m20.95 14.5 0.41-1.39c0.04-0.13 0-0.27-0.09-0.37-0.1-0.1-0.24-0.13-0.37-0.09l-1.39 0.41-1.39-0.41c-0.13-0.04-0.27 0-0.37 0.09-0.1 0.1-0.13 0.24-0.09 0.37l0.41 1.39-0.41 1.39c-0.04 0.13 0 0.27 0.09 0.37 0.1 0.1 0.24 0.13 0.37 0.09l1.39-0.41 1.39 0.41c0.03 0.01 0.07 0.01 0.11 0.01 0.1 0 0.19-0.04 0.27-0.11 0.1-0.1 0.13-0.24 0.09-0.37l-0.42-1.38z"/>
</svg>
